img/price/list.svg

<svg width="19" height="18" viewBox="0 0 19 18" fill="none" xmlns="http://www.w3.org/2000/svg">
<path d="M18.2207 9.25C18.2207 4.46875 14.2832 0.53125 9.50195 0.53125C4.68555 0.53125 0.783203 4.46875 0.783203 9.25C0.783203 14.0664 4.68555 17.9688 9.50195 17.9688C14.2832 17.9688 18.2207 14.0664 18.2207 9.25ZM8.48242 13.8906C8.27148 14.1016 7.88477 14.1016 7.67383 13.8906L4.01758 10.2344C3.80664 10.0234 3.80664 9.63672 4.01758 9.42578L4.82617 8.65234C5.03711 8.40625 5.38867 8.40625 5.59961 8.65234L8.0957 11.1133L13.3691 5.83984C13.5801 5.59375 13.9316 5.59375 14.1426 5.83984L14.9512 6.61328C15.1621 6.82422 15.1621 7.21094 14.9512 7.42188L8.48242 13.8906Z" fill="#4A4A4A"/>
</svg>

<svg width="19" height="18" fill="none" xmlns="http://www.w3.org/2000/svg"><path d="M18.22 9.25c0-4.781-3.937-8.719-8.718-8.719C4.686.531.783 4.47.783 9.25a8.717 8.717 0 008.719 8.719c4.781 0 8.719-3.903 8.719-8.719zm-9.738 4.64a.596.596 0 01-.808 0l-3.656-3.656a.596.596 0 010-.808l.808-.774a.497.497 0 01.774 0l2.496 2.461 5.273-5.273a.497.497 0 01.774 0l.808.773a.596.596 0 010 .809L8.482 13.89z" fill="#4A4A4A"/></svg>
